svg/fluentui-system-icons/ic_fluent_skip_back_10_20_regular.svg

<svg width="20" height="20" viewBox="0 0 20 20" fill="none" xmlns="http://www.w3.org/2000/svg">
<path d="M2.99805 3.5C2.99805 3.22386 3.2219 3 3.49805 3C3.77419 3 3.99805 3.22386 3.99805 3.5V5.70632C4.91067 4.67184 6.08199 3.88382 7.40447 3.43107C9.2407 2.80243 11.2429 2.86309 13.0377 3.60171C14.8325 4.34033 16.2974 5.7065 17.1593 7.44549C17.2819 7.69291 17.1808 7.9929 16.9333 8.11552C16.6859 8.23815 16.3859 8.13698 16.2633 7.88956C15.5092 6.36804 14.2275 5.17272 12.6571 4.52646C11.0868 3.88021 9.33496 3.82714 7.72837 4.37716C6.31508 4.861 5.09908 5.78248 4.25184 7H7.49805C7.77419 7 7.99805 7.22386 7.99805 7.5C7.99805 7.77614 7.77419 8 7.49805 8H3.49805C3.2219 8 2.99805 7.77614 2.99805 7.5V3.5ZM8.00005 10.5C8.00005 10.3156 7.89856 10.1462 7.73598 10.0592C7.5734 9.97215 7.37613 9.98169 7.2227 10.084L5.7227 11.084C5.49294 11.2372 5.43085 11.5476 5.58403 11.7774C5.7372 12.0071 6.04764 12.0692 6.2774 11.916L7.00005 11.4343V16.5C7.00005 16.7761 7.22391 17 7.50005 17C7.7762 17 8.00005 16.7761 8.00005 16.5V10.5ZM12.5029 10C11.568 10 10.9058 10.4367 10.5071 11.1292C10.1306 11.7833 10.0029 12.6366 10.0029 13.5C10.0029 14.3634 10.1306 15.2167 10.5071 15.8708C10.9058 16.5633 11.568 17 12.5029 17C13.4379 17 14.1001 16.5633 14.4988 15.8708C14.8753 15.2167 15.0029 14.3634 15.0029 13.5C15.0029 12.6366 14.8753 11.7833 14.4988 11.1292C14.1001 10.4367 13.4379 10 12.5029 10ZM11.0029 13.5C11.0029 12.7065 11.1253 12.0598 11.3738 11.6281C11.6001 11.2349 11.9379 11 12.5029 11C13.068 11 13.4058 11.2349 13.6321 11.6281C13.8806 12.0598 14.0029 12.7065 14.0029 13.5C14.0029 14.2935 13.8806 14.9402 13.6321 15.3719C13.4058 15.7651 13.068 16 12.5029 16C11.9379 16 11.6001 15.7651 11.3738 15.3719C11.1253 14.9402 11.0029 14.2935 11.0029 13.5Z" fill="#212121"/>
</svg>

<svg xmlns="http://www.w3.org/2000/svg" width="20" height="20"><path d="M2.998 3.5a.5.5 0 1 1 1 0v2.206a7.996 7.996 0 0 1 13.161 1.74.5.5 0 1 1-.896.444A6.996 6.996 0 0 0 4.252 7h3.246a.5.5 0 0 1 0 1h-4a.5.5 0 0 1-.5-.5v-4ZM8 10.5a.5.5 0 0 0-.777-.416l-1.5 1a.5.5 0 0 0 .554.832L7 11.434V16.5a.5.5 0 0 0 1 0v-6Zm4.503-.5c-.935 0-1.597.437-1.996 1.13-.376.653-.504 1.507-.504 2.37 0 .863.128 1.717.504 2.37.399.693 1.061 1.13 1.996 1.13s1.597-.437 1.996-1.13c.376-.653.504-1.507.504-2.37 0-.863-.128-1.717-.504-2.37-.399-.693-1.061-1.13-1.996-1.13Zm-1.5 3.5c0-.793.122-1.44.37-1.872.227-.393.565-.628 1.13-.628s.903.235 1.13.628c.248.432.37 1.079.37 1.872 0 .793-.122 1.44-.37 1.872-.227.393-.565.628-1.13.628s-.903-.235-1.13-.628c-.248-.432-.37-1.079-.37-1.872Z"/></svg>
